X: 32367
T: Pipe On The Hob, The
R: jig
M: 6/8
K: Adorian
|:B|c3 edc|edc BAG|~A3 ~g3|eaf ged|
~c3 edc|edc deg|age dBe|ABA A2:|
|:f|~g3 gea|age edB|~A3 ~g3|eaa gef|
~g3 gea|age d (3efg|age dBe|ABA A2:|
|:B|~c3 dcd|ecA AGE|~c3 dcd|ecA A2B|cBc dcd|
ede gab|1 age dBe|ABA A2:|2 age dBG|ABA A3||

